X:58
T:Nora Criona
T:Nora Creena
T:Old Nora
R:slide
H:also played in G
Z:id:hn-slide-58
M:6/8
L:1/8
K:D
D3 D2E|FED A2F|DED D2F|E2F GFE|D3 D2E|FED A2F|~E3 cBc|E2F GFE:|
|:ABA A2G|F2D A2F|ABA A2F|E2F GFE|ABA A2G|F2D A2F|~E3 cBc|E2F GFE:|
<end>
<start>
